packages/ui-icons/svg/Solid/table-insert-row-above.svg

<svg viewBox="0 0 1920 1920" version="1.1" xmlns="http://www.w3.org/2000/svg">
    <path d="M1694.11765,1129.41176 L1694.11765,225.882353 L225.882353,225.882353 L225.882353,1129.41176 L1694.11765,1129.41176 Z M564.705882,1694.11765 L564.705882,1355.29412 L225.882353,1355.29412 L225.882353,1694.11765 L564.705882,1694.11765 Z M1129.41176,1694.11765 L1129.41176,1355.29412 L790.588235,1355.29412 L790.588235,1694.11765 L1129.41176,1694.11765 Z M1694.11765,1694.11765 L1694.11765,1355.29412 L1355.29412,1355.29412 L1355.29412,1694.11765 L1694.11765,1694.11765 Z M-9.98555327e-14,225.882353 C-9.98555327e-14,101.308235 101.308235,0 225.882353,0 L1694.11765,0 C1818.57882,0 1920,101.308235 1920,225.882353 L1920,1694.11765 C1920,1818.69176 1818.57882,1920 1694.11765,1920 L225.882353,1920 C101.308235,1920 -9.98555327e-14,1818.69176 -9.98555327e-14,1694.11765 L-9.98555327e-14,225.882353 Z M1355.29412,806.625882 L1088.97882,806.625882 L1088.97882,1072.94118 L831.021176,1072.94118 L831.021176,806.625882 L564.705882,806.625882 L564.705882,548.555294 L831.021176,548.555294 L831.021176,282.352941 L1088.97882,282.352941 L1088.97882,548.555294 L1355.29412,548.555294 L1355.29412,806.625882 Z" stroke="none" stroke-width="1" fill-rule="evenodd"/>
</svg>

<svg viewBox="0 0 1920 1920" xmlns="http://www.w3.org/2000/svg">
    <path d="M1694.118 1129.412v-903.53H225.882v903.53h1468.236ZM564.706 1694.118v-338.824H225.882v338.824h338.824Zm564.706 0v-338.824H790.588v338.824h338.824Zm564.706 0v-338.824h-338.824v338.824h338.824ZM0 225.882C0 101.308 101.308 0 225.882 0h1468.236C1818.578 0 1920 101.308 1920 225.882v1468.236c0 124.574-101.421 225.882-225.882 225.882H225.882C101.308 1920 0 1818.692 0 1694.118V225.882Zm1355.294 580.744H1088.98v266.315H831.02V806.626H564.706v-258.07H831.02V282.352h257.958v266.202h266.315v258.07Z" fill-rule="evenodd"/>
</svg>
